miscellanea/post-modern-icons/src/post-modern/24x24/main/tm_find.svg

<?xml version="1.0" encoding="UTF-8" standalone="no"?>
<svg
   xmlns:dc="http://purl.org/dc/elements/1.1/"
   xmlns:cc="http://creativecommons.org/ns#"
   xmlns:rdf="http://www.w3.org/1999/02/22-rdf-syntax-ns#"
   xmlns:svg="http://www.w3.org/2000/svg"
   xmlns="http://www.w3.org/2000/svg"
   xmlns:sodipodi="http://sodipodi.sourceforge.net/DTD/sodipodi-0.dtd"
   xmlns:inkscape="http://www.inkscape.org/namespaces/inkscape"
   width="24"
   height="24"
   viewBox="0 0 24 24"
   fill="none"
   version="1.1"
   id="svg6844"
   sodipodi:docname="tm_find.svg"
   inkscape:export-filename="/Users/mgubi/t/devel/qt6/TeXmacs/misc/pixmaps/modern/24x24/main/tm_find_x4.png"
   inkscape:export-xdpi="384"
   inkscape:export-ydpi="384"
   inkscape:version="1.0.2 (e86c870879, 2021-01-15)">
  <metadata
     id="metadata6850">
    <rdf:RDF>
      <cc:Work
         rdf:about="">
        <dc:format>image/svg+xml</dc:format>
        <dc:type
           rdf:resource="http://purl.org/dc/dcmitype/StillImage" />
        <dc:title />
      </cc:Work>
    </rdf:RDF>
  </metadata>
  <defs
     id="defs6848" />
  <sodipodi:namedview
     pagecolor="#ffffff"
     bordercolor="#666666"
     borderopacity="1"
     objecttolerance="10"
     gridtolerance="10"
     guidetolerance="10"
     inkscape:pageopacity="0"
     inkscape:pageshadow="2"
     inkscape:window-width="1600"
     inkscape:window-height="836"
     id="namedview6846"
     showgrid="false"
     inkscape:zoom="6.96875"
     inkscape:cx="32.664195"
     inkscape:cy="-1.1606813"
     inkscape:window-x="0"
     inkscape:window-y="0"
     inkscape:window-maximized="1"
     inkscape:current-layer="svg6844"
     inkscape:document-rotation="0" />
  <path
     d="m 10,21 h 7 c 1.1046,0 2,-0.8954 2,-2 V 9.41421 C 19,9.149 18.8946,8.89464 18.7071,8.70711 L 13.2929,3.29289 C 13.1054,3.10536 12.851,3 12.5858,3 H 7 C 5.89543,3 5,3.89543 5,5 v 11"
     stroke="#374151"
     stroke-width="2"
     stroke-linecap="round"
     stroke-linejoin="round"
     id="path6842-9"
     sodipodi:nodetypes="csssccsssc"
     style="stroke-width:1.5;stroke-miterlimit:4;stroke-dasharray:none" />
  <path
     d="m 5,21 4.87868,-4.8787 m 0,0 C 10.4216,16.6642 11.1716,17 12,17 c 1.6569,0 3,-1.3431 3,-3 0,-1.6569 -1.3431,-3 -3,-3 -1.6569,0 -3,1.3431 -3,3 0,0.8284 0.33579,1.5784 0.87868,2.1213 z"
     stroke="#374151"
     stroke-width="2"
     stroke-linecap="round"
     stroke-linejoin="round"
     id="path6842-0"
     sodipodi:nodetypes="cccssssc"
     style="stroke-width:1.5;stroke-miterlimit:4;stroke-dasharray:none;stroke:#0000c0;stroke-opacity:1" />
</svg>

<?xml version="1.0" encoding="UTF-8" standalone="no"?>
<svg
   xmlns:dc="http://purl.org/dc/elements/1.1/"
   xmlns:cc="http://creativecommons.org/ns#"
   xmlns:rdf="http://www.w3.org/1999/02/22-rdf-syntax-ns#"
   xmlns:svg="http://www.w3.org/2000/svg"
   xmlns="http://www.w3.org/2000/svg"
   xmlns:sodipodi="http://sodipodi.sourceforge.net/DTD/sodipodi-0.dtd"
   xmlns:inkscape="http://www.inkscape.org/namespaces/inkscape"
   width="24"
   height="24"
   viewBox="0 0 24 24"
   fill="none"
   version="1.1"
   id="svg6844"
   sodipodi:docname="tm_find.svg"
   inkscape:export-filename="/Users/mgubi/t/devel/qt6/TeXmacs/misc/pixmaps/modern/24x24/main/tm_find_x4.png"
   inkscape:export-xdpi="384"
   inkscape:export-ydpi="384"
   inkscape:version="1.0.2 (e86c8708, 2021-01-15)">
  <metadata
     id="metadata6850">
    <rdf:RDF>
      <cc:Work
         rdf:about="">
        <dc:format>image/svg+xml</dc:format>
        <dc:type
           rdf:resource="http://purl.org/dc/dcmitype/StillImage" />
        <dc:title></dc:title>
      </cc:Work>
    </rdf:RDF>
  </metadata>
  <defs
     id="defs6848" />
  <sodipodi:namedview
     pagecolor="#ffffff"
     bordercolor="#666666"
     borderopacity="1"
     objecttolerance="10"
     gridtolerance="10"
     guidetolerance="10"
     inkscape:pageopacity="0"
     inkscape:pageshadow="2"
     inkscape:window-width="1278"
     inkscape:window-height="767"
     id="namedview6846"
     showgrid="false"
     inkscape:zoom="13.9375"
     inkscape:cx="12"
     inkscape:cy="12"
     inkscape:window-x="0"
     inkscape:window-y="23"
     inkscape:window-maximized="0"
     inkscape:current-layer="svg6844" />
  <path
     d="M10 21H17C18.1046 21 19 20.1046 19 19V9.41421C19 9.149 18.8946 8.89464 18.7071 8.70711L13.2929 3.29289C13.1054 3.10536 12.851 3 12.5858 3H7C5.89543 3 5 3.89543 5 5V16M5 21L9.87868 16.1213M9.87868 16.1213C10.4216 16.6642 11.1716 17 12 17C13.6569 17 15 15.6569 15 14C15 12.3431 13.6569 11 12 11C10.3431 11 9 12.3431 9 14C9 14.8284 9.33579 15.5784 9.87868 16.1213Z"
     stroke="#374151"
     stroke-width="2"
     stroke-linecap="round"
     stroke-linejoin="round"
     id="path6842" />
</svg>
